img/Ellipse3.svg

<svg width="732" height="464" viewBox="0 0 732 464" fill="none" xmlns="http://www.w3.org/2000/svg">
<path fill-rule="evenodd" clip-rule="evenodd" d="M314.475 32.9124C399.453 -8.94964 479.648 -9.07826 546.695 22.3459C613.915 53.5148 667.988 116.238 704.717 194.186C739.96 272.909 739.923 357.467 711.139 425.869C681.957 495.291 633.386 547.63 567.198 584.983C532.145 603.791 495.3 616.677 448.46 624.586C402.237 632.379 346.018 635.197 286.455 631.177C168.253 623.443 35.7794 587.136 7.84229 505.239C-7.98935 464.573 1.94804 417.957 21.6316 371.046C41.6378 324.066 71.3902 276.79 102.628 233.223C134.189 189.586 167.236 149.658 201.259 115.797C235.605 81.8673 270.925 54.0032 314.475 32.9124Z" fill="#6055C4"/>
<path d="M314.48 32.927C399.457 -8.93342 479.652 -9.06204 546.699 22.3609C613.918 53.5286 667.991 116.249 704.719 194.194C739.963 272.914 739.925 357.469 711.142 425.868C681.96 495.287 633.389 547.624 567.202 584.976C532.149 603.783 495.303 616.669 448.464 624.577C402.241 632.37 346.023 635.188 286.46 631.168C168.259 623.435 35.7855 587.129 7.84857 505.235C-7.98299 464.571 1.95435 417.957 21.6378 371.047C41.6439 324.069 71.3962 276.795 102.634 233.229C134.195 189.594 167.242 149.668 201.264 115.809C235.61 81.88 270.93 54.0169 314.48 32.927Z" fill="url(#paint0_linear)"/>
<defs>
<linearGradient id="paint0_linear" x1="0.00633623" y1="616.768" x2="124.725" y2="-7.9584" gradientUnits="userSpaceOnUse">
<stop stop-color="#FF8F5A"/>
<stop offset="0.99" stop-color="#FF2F96"/>
</linearGradient>
</defs>
</svg>

<svg xmlns="http://www.w3.org/2000/svg" fill="none" viewBox="0 0 732 464"><path fill="#6055C4" fill-rule="evenodd" d="M314.475 32.912c84.978-41.862 165.173-41.99 232.22-10.566 67.22 31.169 121.293 93.892 158.022 171.84 35.243 78.723 35.206 163.281 6.422 231.683-29.182 69.422-77.753 121.761-143.941 159.114-35.053 18.808-71.898 31.694-118.738 39.603-46.223 7.793-102.442 10.611-162.005 6.591-118.202-7.734-250.676-44.041-278.613-125.938-15.831-40.666-5.894-87.282 13.79-134.193 20.006-46.98 49.758-94.256 80.996-137.823 31.561-43.637 64.608-83.565 98.631-117.426 34.346-33.93 69.666-61.794 113.216-82.885z" clip-rule="evenodd"/><path fill="url(#paint0_linear)" d="M314.48 32.927c84.977-41.86 165.172-41.989 232.219-10.566 67.219 31.168 121.292 93.888 158.02 171.833 35.244 78.72 35.206 163.275 6.423 231.674-29.182 69.419-77.753 121.756-143.94 159.108-35.053 18.807-71.899 31.693-118.738 39.601-46.223 7.793-102.441 10.611-162.004 6.591-118.201-7.733-250.674-44.039-278.611-125.933-15.832-40.664-5.895-87.278 13.789-134.188 20.006-46.978 49.758-94.252 80.996-137.818 31.561-43.635 64.608-83.561 98.63-117.42C235.61 81.88 270.93 54.017 314.48 32.927z"/><defs><linearGradient id="paint0_linear" x1=".006" x2="124.725" y1="616.768" y2="-7.958" gradientUnits="userSpaceOnUse"><stop stop-color="#FF8F5A"/><stop offset=".99" stop-color="#FF2F96"/></linearGradient></defs></svg>
